X:246
T:Learned Pigs and Fireproof Women
C:David Grisman
N:Tabledited by Kim Davis and Mike Stangeland
L:1/8
Q:1/4=195
M:4/4
K:F
z4 za _a=a |: "Dm"fd _d=d "Bb7"BG _G=G | "A7"EF _G=G2A B=B | "Bbdim7"c_d2e a_a ge | 
"Dm"fg "A7"ef2a _a=a | "Dm"fd _d=d "Bb7"BG _G=G | "A7"EF _G=G2A B=B | "Bbdim7"c_d2e ge2f | 
|1 _d"Dm"=d2d2a _a=a :|2 d8 | "Gm"bg eb ge bg | "Dm"ae fa ef af | "A7"ge _de gb ag | 
"Dm"a8 | "Gm"bg eb ge bg | "Dm"ae fa ef af | "E7b5"_af (3afe df ed | "A7"_d=d _e=e3 B=B | 
"A7"c_d3 G_A =AB | 
M:6/4
"A7"zC =B,_B, A,A, A,2 A,a _a=a :| 
M:4/4
|3 d4 [d'4f4A4D4] | z8 | z8 | z8 | z8 | z8 | z8 | z8 | z8 | z8 | z8 | z8 | z8 | 
z8 | z8 | z8 | z8 | z8 | z8 | z8 | z8 | z8 | z8 | z8 | z8 | z8 | z8 | z8 | z8 | 
z8 | z8 | z8 | z8 | z8 | z8 | z8 | z8 | z8 | z8 | 
 

